<?xml version="1.0" encoding="UTF-8"?>
<map version="1.10" tiledversion="1.11.2" orientation="orthogonal" renderorder="right-down" width="30" height="16" tilewidth="32" tileheight="32" infinite="0" nextlayerid="7" nextobjectid="10">
 <objectgroup id="1" name="Collision">
  <object id="1" name="north-wall" class="Wall" x="0" y="0" width="960" height="24"/>
  <object id="2" name="south-wall" class="Wall" x="0" y="516" width="960" height="24"/>
  <object id="3" name="west-wall" class="Wall" x="0" y="0" width="24" height="540"/>
  <object id="4" name="east-wall" class="Wall" x="936" y="0" width="24" height="540"/>
 </objectgroup>
 <objectgroup id="2" name="SpawnPoints"><object id="5" name="damage-player" class="PlayerSpawn" x="150" y="270"/></objectgroup>
 <objectgroup id="3" name="Enemies">
  <object id="6" name="damage-crawler-01" class="EnemySpawn" x="610" y="215"><properties><property name="archetype" value="crawler"/><property name="spawnOrder" type="int" value="1"/></properties></object>
  <object id="7" name="damage-crawler-02" class="EnemySpawn" x="610" y="325"><properties><property name="archetype" value="crawler"/><property name="spawnOrder" type="int" value="2"/></properties></object>
 </objectgroup>
 <objectgroup id="4" name="Interactions"><object id="8" name="seal-one" class="SealNode" x="790" y="215"/><object id="9" name="seal-two" class="SealNode" x="790" y="325"/></objectgroup>
 <objectgroup id="5" name="Triggers"/>
 <objectgroup id="6" name="Hints"/>
</map>
