<?xml version="1.0" encoding="UTF-8"?>
<map version="1.10" tiledversion="1.11.2" orientation="orthogonal" renderorder="right-down" width="30" height="16" tilewidth="32" tileheight="32" infinite="0" nextlayerid="7" nextobjectid="13">
 <objectgroup id="1" name="Collision">
  <object id="1" name="north-wall" class="Wall" x="0" y="0" width="960" height="24"/>
  <object id="2" name="south-wall" class="Wall" x="0" y="516" width="960" height="24"/>
  <object id="3" name="west-wall" class="Wall" x="0" y="0" width="24" height="540"/>
  <object id="4" name="east-wall" class="Wall" x="936" y="0" width="24" height="540"/>
  <object id="5" name="cover-a" class="Wall" x="420" y="125" width="48" height="120"/>
  <object id="6" name="cover-b" class="Wall" x="420" y="295" width="48" height="120"/>
  <object id="7" name="cover-c" class="Wall" x="610" y="210" width="48" height="120"/>
 </objectgroup>
 <objectgroup id="2" name="SpawnPoints"><object id="8" name="temporal-player" class="PlayerSpawn" x="110" y="270"/></objectgroup>
 <objectgroup id="3" name="Enemies">
  <object id="9" name="temporal-sentinel-a" class="EnemySpawn" x="500" y="110"><properties><property name="archetype" value="sentinel"/><property name="spawnOrder" type="int" value="1"/></properties></object>
  <object id="10" name="temporal-sentinel-b" class="EnemySpawn" x="500" y="430"><properties><property name="archetype" value="sentinel"/><property name="spawnOrder" type="int" value="2"/></properties></object>
 </objectgroup>
 <objectgroup id="4" name="Interactions"><object id="11" name="temporal-terminal-a" class="Terminal" x="830" y="150"/><object id="12" name="temporal-terminal-b" class="Terminal" x="830" y="390"/></objectgroup>
 <objectgroup id="5" name="Triggers"/>
 <objectgroup id="6" name="Hints"/>
</map>
